src/components/ErrorMessage/sad-sumo.svg

<svg width="42" height="47" viewBox="0 0 42 47" fill="none" xmlns="http://www.w3.org/2000/svg">
  <path d="M36.02 12.7V8c0-3.31-2.69-6-6-6h-18c-3.31 0-6 2.69-6 6v4.7c-2.42 1.15-4 3.6-4 6.3v10c0 2.27 1.54 4.25 3.75 4.83l2.25.13V41c0 2.21 1.79 4 4 4s4-1.79 4-4v-3h10v3c0 2.21 1.79 4 4 4s4-1.79 4-4v-7.05l2.05-.1.2-.03a4.993 4.993 0 0 0 3.75-4.83V19c0-2.7-1.58-5.15-4-6.3z" fill="var(--svg-icon-fill)" />
  <path d="M35 25H7v8h8v6h12v-6h8v-8z" fill="var(--svg-icon-stroke)"/>
  <path d="M38 11.54V8c0-4.41-3.59-8-8-8H12C7.59 0 4 3.59 4 8v3.54C1.54 13.19 0 15.97 0 19v10c0 3.52 2.61 6.44 6 6.93V41c0 3.31 2.69 6 6 6s6-2.69 6-6v-1h6v1c0 3.31 2.69 6 6 6s6-2.69 6-6v-5.07c3.39-.49 6-3.41 6-6.93V19c0-3.03-1.54-5.81-4-7.46zM39 29c0 1.86-1.28 3.41-3 3.86V21c0-.83-.67-1.5-1.5-1.5S33 20.17 33 21v20c0 1.66-1.34 3-3 3s-3-1.34-3-3v-4H15v4c0 1.66-1.34 3-3 3s-3-1.34-3-3V21c0-.83-.67-1.5-1.5-1.5S6 20.17 6 21v11.86c-1.72-.45-3-2-3-3.86V19c0-2.61 1.67-4.81 4-5.63V8c0-2.76 2.24-5 5-5h18c2.76 0 5 2.24 5 5v5.37c2.33.83 4 3.02 4 5.63v10z" fill="var(--svg-icon-stroke)"/>
  <path d="M13.02 12c-1.65 0-3-1.35-3-3 0-.55.45-1 1-1s1 .45 1 1 .45 1 1 1 1-.45 1-1 .45-1 1-1 1 .45 1 1c0 1.65-1.35 3-3 3zM29.02 12c-1.65 0-3-1.35-3-3 0-.55.45-1 1-1s1 .45 1 1 .45 1 1 1 1-.45 1-1 .45-1 1-1 1 .45 1 1c0 1.65-1.35 3-3 3zM27.02 17.5h-12c-.83 0-1.5-.67-1.5-1.5s.67-1.5 1.5-1.5h12c.83 0 1.5.67 1.5 1.5s-.67 1.5-1.5 1.5z" fill="var(--svg-icon-stroke)"/>
</svg>

<svg
    width="42"
    height="47"
    viewBox="0 0 42 47"
    fill="none"
    xmlns="http://www.w3.org/2000/svg"
  >
    <path d="M35 25H7V33H15V39H27V33H35V25Z" fill="#303838" />
    <path
      d="M38 11.54V8C38 3.59 34.41 0 30 0H12C7.59 0 4 3.59 4 8V11.54C1.54 13.19 0 15.97 0 19V29C0 32.52 2.61 35.44 6 35.93V41C6 44.31 8.69 47 12 47C15.31 47 18 44.31 18 41V40H24V41C24 44.31 26.69 47 30 47C33.31 47 36 44.31 36 41V35.93C39.39 35.44 42 32.52 42 29V19C42 15.97 40.46 13.19 38 11.54ZM39 29C39 30.86 37.72 32.41 36 32.86V21C36 20.17 35.33 19.5 34.5 19.5C33.67 19.5 33 20.17 33 21V33V34.25V41C33 42.66 31.66 44 30 44C28.34 44 27 42.66 27 41V37C24.56 37 17.44 37 15 37V41C15 42.66 13.66 44 12 44C10.34 44 9 42.66 9 41V34.25V33V21C9 20.17 8.33 19.5 7.5 19.5C6.67 19.5 6 20.17 6 21V32.86C4.28 32.41 3 30.86 3 29C3 27.98 3 20.24 3 19C3 16.39 4.67 14.19 7 13.37V8C7 5.24 9.24 3 12 3C14.76 3 27.24 3 30 3C32.76 3 35 5.24 35 8V13.37C37.33 14.2 39 16.39 39 19C39 20.24 39 27.98 39 29Z"
      fill="#303838"
    />
    <path
      d="M13.02 12C11.37 12 10.02 10.65 10.02 9C10.02 8.45 10.47 8 11.02 8C11.57 8 12.02 8.45 12.02 9C12.02 9.55 12.47 10 13.02 10C13.57 10 14.02 9.55 14.02 9C14.02 8.45 14.47 8 15.02 8C15.57 8 16.02 8.45 16.02 9C16.02 10.65 14.67 12 13.02 12Z"
      fill="#373B39"
    />
    <path
      d="M29.02 12C27.37 12 26.02 10.65 26.02 9C26.02 8.45 26.47 8 27.02 8C27.57 8 28.02 8.45 28.02 9C28.02 9.55 28.47 10 29.02 10C29.57 10 30.02 9.55 30.02 9C30.02 8.45 30.47 8 31.02 8C31.57 8 32.02 8.45 32.02 9C32.02 10.65 30.67 12 29.02 12Z"
      fill="#373B39"
    />
    <path
      d="M27.02 17.5H15.02C14.19 17.5 13.52 16.83 13.52 16C13.52 15.17 14.19 14.5 15.02 14.5H27.02C27.85 14.5 28.52 15.17 28.52 16C28.52 16.83 27.85 17.5 27.02 17.5Z"
      fill="#373B39"
    />
  </svg>
